X:1
T:St. Boniface (Gadsby), 11.11.11.11.11.11
T:St. Boniface (Gadsby), 11.11.11.11.11.11
T:Henry Robert Gadsby,  1875
T:Public Domain Courtesy of the Cyber Hymnal™
C:Henry Robert Gadsby,  1875
Z:Public Domain
Z:Courtesy of the Cyber Hymnal™
%%score ( 1 2 ) ( 3 4 )
L:1/8
Q:1/4=112
M:none
K:G
V:1 treble 
V:2 treble 
V:3 bass 
V:4 bass 
V:1
 D3 [DG] [GB]2 [Ad]2 | [Gd]4 [Gc]4 | [GB]2 [EG]2 [DG]2 [CF]2 | [DG]8 | [CE]3 [DF] [DG]2 [Gc]2 | %5
 [GB]4 [FA]4 | [DG]2 [DG]2 [DA]2 [^CA]2 | D8 | [CE]3 [EG] [Gc]2 [^Ge]2 | [Ae]4 [Ac]4 | %10
 [Ac]3 [Ac] [Gc]2 [=FG]2 | [EG]8 | [EA]3 E [EF]2 [EG]2 | F4 [DA]4 | [DG]3 [DA] [DB]2 [GB]2 | %15
 [Fd]8 | D3 [DG] [GB]2 [Ad]2 | [Gd]4 [Gc]4 | [GB]2 [EG]2 [DG]2 [CF]2 | [B,G]8 | %20
 [CE]3 [EG] [Gc]2 [^Ge]2 | [Ae]4 [Ac]4 | [GB]2 [EG]2 [DG]2 [DF]2 | [DG]8 |] %24
V:2
 D3 x5 | x8 | x8 | x8 | x8 | x8 | x8 | D8 | x8 | x8 | x8 | x8 | x3 E x4 | F4 x4 | x8 | x8 | D3 x5 | %17
 x8 | x8 | x8 | x8 | x8 | x8 | x8 |] %24
V:3
 [G,B,]3 [G,B,] [G,D]2 [F,D]2 | [E,G,]4 [E,C]4 | [D,D]2 [D,C]2 [D,B,]2 [D,A,]2 | [G,B,]8 | %4
 [C,G,]3 [C,A,] [B,,B,]2 [A,,E]2 | [D,D]4 [C,D]4 | [B,,D]2 [B,,G,]2 [A,,F,]2 [A,,G,]2 | [D,F,]8 | %8
 [C,G,]3 [C,C] [CE]2 [B,D]2 | [A,C]4 [A,E]4 | [=F,=F]3 [F,C] [E,C]2 [D,B,]2 | C8 | %12
 [A,,C]3 [A,C] [A,C]2 [E,B,]2 | [D,D]4 [C,F,]4 | [B,,G,]3 [D,F,] G,2 [E,G,]2 | (A,4 B,2 C2) | %16
 [G,B,]3 [G,B,] [G,D]2 [F,D]2 | [E,G,]4 [E,C]4 | [D,D]2 [D,C]2 [D,B,]2 [D,A,]2 | G,8 | %20
 [C,G,]3 [C,C] [CE]2 [B,D]2 | [A,C]4 [A,E]4 | [D,D]2 [D,C]2 [D,B,]2 [D,A,]2 | [G,B,]8 |] %24
V:4
 x8 | x8 | x8 | x8 | x8 | x8 | x8 | x8 | x8 | x8 | x8 | (C,6 B,,2) | x8 | x8 | x4 G,2 x2 | D,8 | %16
 x8 | x8 | x8 | (E,4 D,4) | x8 | x8 | x8 | x8 |] %24

